X:508
T:Old English Gentleman. RH.508
R:air
S:Rev.R.Harrison’s MS,c1815,Cumbria
N:Music Hall? Possibly a different hand.
O:England
A:Temple Sowerby,Cumbria
Z:vmp.Simon Wilson. Review PJH, 2008.
M:C
L:1/8
Q:2/4=60
K:G
” Andante”G|GG/G/ GG G2zF/G/|AG/G/ FG A2AA|\
AAAA AAAA|BAGA B2zB/B/|!
BBBB BBBB|c>B AB czcc|\
cccc cccc|d”sic”cBc dd2||!
M:6/8
GG|G2g f2e|e2d d2d|{d}c2B {B}G2G|G3 G2|]

